images/bb.svg

<?xml version="1.0" encoding="UTF-8" standalone="no"?><!DOCTYPE svg PUBLIC "-//W3C//DTD SVG 1.1//EN" "http://www.w3.org/Graphics/SVG/1.1/DTD/svg11.dtd"><svg width="100%" height="100%" viewBox="0 0 57 57" version="1.1" xmlns="http://www.w3.org/2000/svg" xmlns:xlink="http://www.w3.org/1999/xlink" xml:space="preserve" xmlns:serif="http://www.serif.com/" style="fill-rule:evenodd;clip-rule:evenodd;"><circle id="cir_1" cx="28.5" cy="28.5" r="24.5" style="fill:#fafafa;"/><circle id="cir_2" cx="28.5" cy="28.5" r="22.05" style="fill:#fafafa;stroke:#000;stroke-width:2px;"/><path d="M23.028,12.806c-0.03,0.118 -0.104,0.445 -0.148,0.727c-0.149,0.861 -1.262,2.359 -3.176,4.289c-1.083,1.098 -1.81,1.929 -1.781,2.077c0.074,0.401 0.787,0.356 1.722,-0.119c0.92,-0.46 2.775,-1.706 2.938,-1.958c0.044,-0.089 0.401,-0.119 0.846,-0.06c0.43,0.045 1.335,-0.015 2.033,-0.133c0.697,-0.104 1.291,-0.178 1.321,-0.149c0.029,0.03 -0.52,0.683 -1.217,1.455l-1.291,1.395l-1.662,0.178c-2.004,0.207 -3.473,0.237 -4.527,0.074c-1.291,-0.193 -1.647,0.445 -0.727,1.306c0.431,0.415 0.549,0.697 0.906,2.181c0.608,2.612 1.246,3.443 2.047,2.716c0.223,-0.208 0.624,-0.327 1.292,-0.386l0.964,-0.089l-0.801,0.742c-1.054,0.979 -3.488,2.701 -5.031,3.547c-0.95,0.519 -1.202,0.727 -1.172,0.964c0.044,0.416 0.697,0.46 1.721,0.134c1.113,-0.341 3.562,-1.499 4.808,-2.256c1.009,-0.638 1.351,-0.727 1.722,-0.489c0.801,0.504 -4.215,4.526 -7.598,6.099c-1.173,0.549 -1.425,0.727 -1.395,0.964c0.059,0.49 1.009,0.46 2.641,-0.089c2.671,-0.89 5.298,-2.419 7.227,-4.199c0.49,-0.46 0.95,-0.831 1.024,-0.831c0.074,0 0.223,0.163 0.312,0.356c0.237,0.549 -0.416,1.439 -2.226,3.057c-2.345,2.092 -4.126,3.265 -7.717,5.06c-1.454,0.727 -1.796,1.039 -1.469,1.366c0.119,0.118 0.49,0.089 1.469,-0.104c3.695,-0.772 6.663,-2.241 9.542,-4.719c0.564,-0.475 1.039,-0.861 1.083,-0.861c0.193,0 0.253,1.142 0.104,2.226c-0.178,1.291 -0.593,2.448 -1.024,2.76c-0.356,0.282 -1.291,0.252 -2.448,-0.074c-0.891,-0.252 -1.024,-0.267 -1.217,-0.074c-0.297,0.296 -0.193,0.46 1.128,1.84c0.608,0.623 1.395,1.469 1.766,1.899c0.578,0.653 0.757,0.772 1.202,0.772c1.024,0 2.419,-1.514 2.968,-3.235c0.43,-1.321 0.564,-5.357 0.237,-6.901c-0.119,-0.549 -0.163,-0.994 -0.104,-0.964c0.075,0.029 0.846,0.875 1.722,1.899c2.864,3.324 4.214,4.719 4.867,5.046c0.816,0.386 1.9,0.386 3.844,-0.015c1.781,-0.371 2.567,-0.653 2.701,-0.994c0.133,-0.371 -0.193,-0.579 -2.004,-1.262c-4.392,-1.677 -5.891,-2.597 -9.423,-5.787l-0.89,-0.802l1.632,-0.786c0.905,-0.431 2.256,-1.069 3.012,-1.425c0.742,-0.356 1.366,-0.712 1.366,-0.786c0,-0.342 -0.891,-1.128 -1.707,-1.514c-1.321,-0.638 -1.899,-0.564 -2.077,0.237c-0.134,0.52 -1.084,1.559 -2.419,2.627l-0.92,0.742l-0.713,-0.356c-0.386,-0.193 -1.039,-0.698 -1.454,-1.113c-0.416,-0.416 -1.054,-0.905 -1.41,-1.098l-0.653,-0.327l0.623,-0.297c0.698,-0.341 0.861,-0.593 0.639,-0.979c-0.149,-0.297 0.029,-0.326 2.997,-0.549c1.276,-0.104 1.306,-0.104 1.618,0.297c0.341,0.43 0.875,0.504 1.439,0.193c0.193,-0.119 0.787,-1.024 1.38,-2.108c0.579,-1.068 1.247,-2.137 1.499,-2.404c0.594,-0.608 0.49,-1.068 -0.371,-1.647c-0.861,-0.608 -2.374,-1.217 -2.953,-1.217c-0.267,0 -1.321,0.208 -2.345,0.445c-1.009,0.238 -1.855,0.416 -1.884,0.386c-0.134,-0.118 2.819,-2.404 3.799,-2.938c0.534,-0.297 0.623,-0.816 0.193,-1.202c-0.416,-0.386 -1.855,-0.994 -2.345,-0.994c-0.252,0 -1.143,0.252 -2.004,0.578c-0.845,0.312 -1.736,0.624 -1.973,0.668c-0.386,0.089 -0.416,0.074 -0.253,-0.119c0.104,-0.133 0.431,-0.371 0.698,-0.549c0.712,-0.43 0.861,-0.771 0.594,-1.291c-0.386,-0.742 -2.939,-1.602 -3.117,-1.053Zm8.325,9.186c-0.044,0.4 -0.222,1.038 -0.385,1.409c-0.268,0.609 -0.312,0.653 -0.713,0.535c-0.237,-0.075 -1.113,-0.06 -1.944,0.029c-0.831,0.075 -1.558,0.119 -1.588,0.075c-0.029,-0.03 -0.015,-0.594 0.045,-1.247l0.104,-1.172l1.335,-0.164c0.742,-0.089 1.766,-0.178 2.286,-0.193l0.949,-0.014l-0.089,0.742Zm-6.856,0.148c0.045,0.074 0.045,0.638 -0.015,1.247l-0.103,1.098l-1.054,0.089c-0.579,0.059 -1.395,0.133 -1.811,0.178l-0.742,0.089l-0.192,-1.217c-0.104,-0.668 -0.164,-1.232 -0.134,-1.261c0.03,-0.03 2.389,-0.253 3.636,-0.342c0.178,-0.015 0.371,0.03 0.415,0.119Z" style="fill-rule:nonzero;"/></svg>

<?xml version="1.0" encoding="UTF-8" standalone="no"?>
<!DOCTYPE svg PUBLIC "-//W3C//DTD SVG 1.1//EN" "http://www.w3.org/Graphics/SVG/1.1/DTD/svg11.dtd">
<svg width="100%" height="100%" viewBox="0 0 57 57" version="1.1" xmlns="http://www.w3.org/2000/svg" xmlns:xlink="http://www.w3.org/1999/xlink" xml:space="preserve" xmlns:serif="http://www.serif.com/" style="fill-rule:evenodd;clip-rule:evenodd;">
    <g id="cir_1" transform="matrix(1.0198,0,0,1.03035,-0.0791987,-0.121408)">
        <circle cx="28.5" cy="28.5" r="24.5" style="fill:rgb(119,119,119);"/>
    </g>
    <circle id="cir_11" serif:id="cir_1" cx="28.5" cy="28.5" r="24.5" style="fill:rgb(250,250,250);"/>
    <circle id="cir_2" cx="28.5" cy="28.5" r="22.05" style="fill:rgb(250,250,250);stroke:black;stroke-width:2px;"/>
    <path d="M23.028,12.806C22.998,12.924 22.924,13.251 22.88,13.533C22.731,14.394 21.618,15.892 19.704,17.822C18.621,18.92 17.894,19.751 17.923,19.899C17.997,20.3 18.71,20.255 19.645,19.78C20.565,19.32 22.42,18.074 22.583,17.822C22.627,17.733 22.984,17.703 23.429,17.762C23.859,17.807 24.764,17.747 25.462,17.629C26.159,17.525 26.753,17.451 26.783,17.48C26.812,17.51 26.263,18.163 25.566,18.935L24.275,20.33L22.613,20.508C20.609,20.715 19.14,20.745 18.086,20.582C16.795,20.389 16.439,21.027 17.359,21.888C17.79,22.303 17.908,22.585 18.265,24.069C18.873,26.681 19.511,27.512 20.312,26.785C20.535,26.577 20.936,26.458 21.604,26.399L22.568,26.31L21.767,27.052C20.713,28.031 18.279,29.753 16.736,30.599C15.786,31.118 15.534,31.326 15.564,31.563C15.608,31.979 16.261,32.023 17.285,31.697C18.398,31.356 20.847,30.198 22.093,29.441C23.102,28.803 23.444,28.714 23.815,28.952C24.616,29.456 19.6,33.478 16.217,35.051C15.044,35.6 14.792,35.778 14.822,36.015C14.881,36.505 15.831,36.475 17.463,35.926C20.134,35.036 22.761,33.507 24.69,31.727C25.18,31.267 25.64,30.896 25.714,30.896C25.788,30.896 25.937,31.059 26.026,31.252C26.263,31.801 25.61,32.691 23.8,34.309C21.455,36.401 19.674,37.574 16.083,39.369C14.629,40.096 14.287,40.408 14.614,40.735C14.733,40.853 15.104,40.824 16.083,40.631C19.778,39.859 22.746,38.39 25.625,35.912C26.189,35.437 26.664,35.051 26.708,35.051C26.901,35.051 26.961,36.193 26.812,37.277C26.634,38.568 26.219,39.725 25.788,40.037C25.432,40.319 24.497,40.289 23.34,39.963C22.449,39.711 22.316,39.696 22.123,39.889C21.826,40.185 21.93,40.349 23.251,41.729C23.859,42.352 24.646,43.198 25.017,43.628C25.595,44.281 25.774,44.4 26.219,44.4C27.243,44.4 28.638,42.886 29.187,41.165C29.617,39.844 29.751,35.808 29.424,34.264C29.305,33.715 29.261,33.27 29.32,33.3C29.395,33.329 30.166,34.175 31.042,35.199C33.906,38.523 35.256,39.918 35.909,40.245C36.725,40.631 37.809,40.631 39.753,40.23C41.534,39.859 42.32,39.577 42.454,39.236C42.587,38.865 42.261,38.657 40.45,37.974C36.058,36.297 34.559,35.377 31.027,32.187L30.137,31.385L31.769,30.599C32.674,30.168 34.025,29.53 34.781,29.174C35.523,28.818 36.147,28.462 36.147,28.388C36.147,28.046 35.256,27.26 34.44,26.874C33.119,26.236 32.541,26.31 32.363,27.111C32.229,27.631 31.279,28.67 29.944,29.738L29.024,30.48L28.311,30.124C27.925,29.931 27.272,29.426 26.857,29.011C26.441,28.595 25.803,28.106 25.447,27.913L24.794,27.586L25.417,27.289C26.115,26.948 26.278,26.696 26.056,26.31C25.907,26.013 26.085,25.984 29.053,25.761C30.329,25.657 30.359,25.657 30.671,26.058C31.012,26.488 31.546,26.562 32.11,26.251C32.303,26.132 32.897,25.227 33.49,24.143C34.069,23.075 34.737,22.006 34.989,21.739C35.583,21.131 35.479,20.671 34.618,20.092C33.757,19.484 32.244,18.875 31.665,18.875C31.398,18.875 30.344,19.083 29.32,19.32C28.311,19.558 27.465,19.736 27.436,19.706C27.302,19.588 30.255,17.302 31.235,16.768C31.769,16.471 31.858,15.952 31.428,15.566C31.012,15.18 29.573,14.572 29.083,14.572C28.831,14.572 27.94,14.824 27.079,15.15C26.234,15.462 25.343,15.774 25.106,15.818C24.72,15.907 24.69,15.892 24.853,15.699C24.957,15.566 25.284,15.328 25.551,15.15C26.263,14.72 26.412,14.379 26.145,13.859C25.759,13.117 23.206,12.257 23.028,12.806ZM31.353,21.992C31.309,22.392 31.131,23.03 30.968,23.401C30.7,24.01 30.656,24.054 30.255,23.936C30.018,23.861 29.142,23.876 28.311,23.965C27.48,24.04 26.753,24.084 26.723,24.04C26.694,24.01 26.708,23.446 26.768,22.793L26.872,21.621L28.207,21.457C28.949,21.368 29.973,21.279 30.493,21.264L31.442,21.25L31.353,21.992ZM24.497,22.14C24.542,22.214 24.542,22.778 24.482,23.387L24.379,24.485L23.325,24.574C22.746,24.633 21.93,24.707 21.514,24.752L20.772,24.841L20.58,23.624C20.476,22.956 20.416,22.392 20.446,22.363C20.476,22.333 22.835,22.11 24.082,22.021C24.26,22.006 24.453,22.051 24.497,22.14Z" style="fill-rule:nonzero;"/>
</svg>
